X:6690
T:Waltz
A:Dalsland
M:3/4
O:Sweden
R:Waltz
Z:Richard Robinson 
%%TUNEURL: http://www.leeds.ac.uk/music/Info/RRTuneBk/gettune/00000c22.html
%%ID:00000c22
K:A
AB cd ef |e4 c2 | Ac ec AB| cd/c/ BA B2|\
AB cd ef |e4 c2 | Ac ec AB| cd/c/ BA Bc|1 A6 :|2 A4|:
f2|\
e3d cd| e4 a2| e3d cd| e3a ab|\
a3f de| f2ec A2| A2 (3B/c/B/A Bc|1 A4 :|2 A6|]
